X:1
T:Title
%%score { ( 1 4 ) | ( 2 3 ) }
L:1/8
Q:1/4=100
M:4/4
K:Ab
V:1 treble nm="Grand Piano"
V:4 treble 
V:2 bass 
V:3 bass 
V:1
 [CE]3 [CE] [_CF]2 [=CE]2 | [CA]>[B,G] [CA]>[DB] [Fd]2 [Ec]2 | c2 B>A B2 E2 | %3
w: Thoro~Harris * * *|||
 B2 c>B [A,CA]2[K:bass] [B,DE]2 | [A,CE]3 [E,CE][K:treble] [_CF]2 [=CE]2 | %5
w: ||
 [CA]>[B,G] [CA]>[DB] [Fd]2 [Ec]2 | c2 B>=A B2 FG | [CA]6 z2 | [Fd]2 [Fd]>[Fd] [Fd]2 [DF]2 | %9
w: ||||
 [CE]2 [EA]>B c2 [CA]2 | [Ec]2 [B,EB][Ec] [Ee]2 [Fd][Ac] | B4 e4 | %12
w: |||
 [CE]2 [A,CE]>[G,CE] [_CF]2 [=CE]2 | [CA]>[B,G] [CA]>[DB] [Fd]2 [Ec]2 | c2 B>=A B2 FG | %15
w: |||
 A2- [DA-]2 [CA]2 z2 |] %16
w: |
V:2
 [A,,A,]3 [A,,E,] [A,,=D,]2 [A,,E,]2 | [A,,E,]>[A,,E,] [A,,E,]>[A,,E,] [A,,A,]2 [A,,A,]2 | %2
 [E,G,D]2 [E,G,D]>[E,_G,C] [E,=G,D]2 [E,G,D]2 | [E,G,D]2 [E,F,E]>[E,G,D] A,,2 A,,2 | %4
 A,,3 A,, [A,,=D,]2 [A,,E,]2 | [A,,E,]>[A,,E,] [A,,E,]>[A,,E,] [A,,A,]2 [A,,A,]2 | %6
 [E,G,D]2 [E,G,D]>[E,_G,C] [E,=G,D]2 [E,A,D][E,B,D] | [A,,A,]6 z2 | %8
 [D,A,]2 [D,A,]>[D,A,] [D,A,]2 [D,A,]2 | [A,,A,]2 [C,A,]>[E,G,E] [A,E]2 [A,,A,]2 | %10
 [A,,A,]2 G,,[A,,A,] [C,A,]2 [D,A,][=D,F,] | G,4 D4 | A,,2 A,,>A,, [A,,=D,]2 [A,,E,]2 | %13
 [A,,E,]>[A,,E,] [A,,E,]>[A,,E,] [A,,A,]2 [A,,A,]2 | %14
 [E,G,D]2 [E,G,D]>[E,_G,C] [E,=G,D]2 [E,A,D][E,B,D] | z2 F,>A, E,2 z2 |] %16
V:3
 x8 | x8 | x8 | x8 | x8 | x8 | x8 | x8 | x8 | x8 | x8 | [E,E]8 | x8 | x8 | x8 | A,,6 z2 |] %16
V:4
 x8 | x8 | x8 | x6[K:bass] x2 | x4[K:treble] x4 | x8 | x8 | x8 | x8 | x8 | x8 | x8 | x8 | x8 | x8 | %15
 [A,C]2 z2 z4 |] %16

